X:1
T:Waltz of the Flowers
T:Waltz of the Flowers
T:The Nutcracker, Piano Arrangement for 3 hands
T:Hinci
C:Hinci
%%score { ( 1 4 ) | ( 2 5 ) | 3 }
L:1/8
Q:1/4=146
M:3/4
K:D
V:1 treble nm="Piano" snm="Pno."
V:4 treble 
V:2 bass 
V:5 bass 
V:3 bass 
V:1
"^Tempo di valse"!f! !tenuto![EA]2 !tenuto![EAc]2 !tenuto![Ace]2 | !>![A=cf]4 [Ae]2 | !>![Ae]6- | %3
 [Ae] z z4 | !tenuto![EA]2 !tenuto![EAc]2 !tenuto![Ace]2 | !>![Acfa]4 [ceg]2 | !>![ceg]6- | %7
 [ceg] z z4 |!mf!!<(! [EAc]2 [Ace]2 [ceg]2!<)! |!f!"^rit.""_dim." [Bfb]4 [FBf] z | %10
[Q:1/4=142] [Aea]4[Q:1/4=140] [Geg]2 |[Q:1/4=138] [GB^dg]4[Q:1/4=136] [FBd]2 | %12
[Q:1/4=134] [FB^df]4[Q:1/4=132] [EBe]2 |[Q:1/4=130] [EBe]4[Q:1/4=128] [EB]2 | %14
[Q:1/4=126] [DBd]2 [CAc]2!mp! [B,D=FB]2 |[Q:1/4=120]!pp!!<(! (A/G/E/C/) (c/A/G/E/) (e/c/A/G/)!<)! | %16
!mp![Q:1/4=124]!>(! (f/e/c/A/) (e/c/A/G/) (c/A/G/!>)!!p!E/) | %17
"^accel."[Q:1/4=126] (A/G/E/C/)[Q:1/4=128]!<(! (c/A/G/E/)[Q:1/4=130] (e/c/A/G/)!<)! | %18
!mp!!>(! (a/g/e/c/)[Q:1/4=126] (g/e/c/A/)[Q:1/4=124] (e/c/A/!>)!!p!G/) | %19
[Q:1/4=126] (c/A/G/E/) (e/c/A/G/)[Q:1/4=128]"_cresc." (g/e/c/A/) | %20
[Q:1/4=130] (b/g/e/c/) (a/g/e/c/)[Q:1/4=132] (d'/a/g/e/) | %21
 (c'/a/g/e/)[Q:1/4=134] (f'/c'/a/g/) (e'/c'/a/g/) | %22
[Q:1/4=136] (a'/e'/c'/a/) (g'/e'/c'/a/)!f! (!fermata!b'/[Q:1/4=126]g'/e'/c'/) | %23
[Q:1/4=132]"_poco rit." (a'/g'/e'/c'/)[Q:1/4=131] (g'/e'/c'/a/)[Q:1/4=130] (e'/c'/a/g/) | %24
[Q:1/4=128]"_dim." (c'/a/g/e/)[Q:1/4=127] (a/g/e/c/)[Q:1/4=125] (g/e/c/A/) | %25
[Q:1/4=124] (e/c/A/G/[Q:1/4=122] c/A/G/E/)[Q:1/4=121] (A/G/E/C/) | %26
[Q:1/4=119] (G/E/C/A,/)[Q:1/4=118] (E/C/A,/G,/)[K:bass][Q:1/4=116] (C/A,/G,/E,/) | %27
[Q:1/4=115] (A,/G,/E,/C,/)[Q:1/4=96] (G,/[Q:1/4=80]E,/C,/!pp!E,/)[K:treble][Q:1/4=55]!<(! (12:8:12(!fermata!A,/4C/4E/4A/4c/4[Q:1/4=66]e/4a/4c'/4e'/4[Q:1/4=77]!8va(!a'/4c''/4e''/4!<)! | %28
!f! a'')!8va)! z"_riten."[Q:1/4=96] !arpeggio![gc'e'g']2[Q:1/4=88] !arpeggio![egc'e']2 | %29
[Q:1/4=80]!>(! !arpeggio![cegc']2[Q:1/4=72] !arpeggio![Aceg]2 !arpeggio![EAce]2!>)! | %30
!p! !arpeggio![CEAc]6 |[Q:1/4=63] !arpeggio![B,D=FB]6 | !arpeggio!!fermata![CEGA]6 || %33
[Q:1/4=180]"^Tempo di Valse" z6 | z6 | z6 | z6 | %37
!p! !tenuto![D,F,A,]2 !tenuto![F,A,D]2 !tenuto![A,DF]2 | !>![CEG]4- [CEG]>[A,DF] | [A,DF]6- | %40
 [A,DF]6 | !tenuto![D,F,A,]2 !tenuto![F,A,D]2 !tenuto![A,DF]2 | %42
 !tenuto![CEG]2 !>![^A,CF]7/2 [A,CE]/ | !>![A,FA]4 !tenuto![A,D]2 | z2 (A,B, CD) | (^DF DF E) z | %46
 z2"_cresc." (=CD ^DE) | (FA FA G) z | z2 (EF GA) | (^Ac BA Bc) |!mf! (ed cd BG) | F4 E2- | %52
 E!>(!(_E DC =CB,)!>)! |!p! !tenuto![D,F,A,]2 !tenuto![F,A,D]2 !tenuto![A,DF]2 | %54
 !>![CEG]4- [CEG]>[A,DF] | [A,DF]6- | [A,DF]6 | %57
 !tenuto![D,F,A,]2 !tenuto![F,A,D]2 !tenuto![A,DF]2 | !tenuto![CEG]2 !>![^A,CF]7/2 [A,CE]/ | %59
 !>![A,FA]4 !tenuto![A,D]2 | z2 (DE F^G) |"_cresc." (AB ^GB A) z | z2 (G^G AB) | (cd ^Bd c) z | %64
 z2 (^Bc ^d^e) |!f! (f^g a^e gf) | (a^e ^gf af) | (af af a^e | f)(A [^GB][Ac] [Bd][ce]) |: %69
 ([df]4 [Ac]2) | ([ce]4 [DB]2) | ([Bd]4 [EG]2) | (5:4:5(c'/d'/c'/d'/c'/) .[a^b] z .[ac'] z | %73
 ([dg]4 [Gd]2) | ([cf]4 [Ec]2) | ([ce]4 [FA]2) | (5:4:5(d'/e'/d'/e'/d'/) .[fc'] z .[fd'] z | %77
 ([df]4 [Ac]2) | ([ce]4 [DB]2) | ([Bd]4 [EG]2) | (5:4:5(c'/d'/c'/d'/c'/) .[a^b] z .[ac'] z |1 %81
!<(! ([dg]4 [Gd]2) | ([^dg]4 [Gd]2) | ([eg]4 [Ge]2)!<)! | [Aea](A [^GB][Ac] [Bd][ce]) :|2 %85
!f!!<(! ([ab]4 [Ba]2) | ([ab]4 [=ca]2)!<)! | [cec'] z!ff! (ef g^g | %88
 [Acea])!>(!.G .E.C (B,_B,)!>)! ||!mp! !tenuto![D,F,A,]2 !tenuto![F,A,D]2 !tenuto![A,DF]2 | %90
 !>![CEG]4- [CEG]>[A,DF] | [A,DF]6- | [A,DF]6 | %93
 !tenuto![D,F,A,]2 !tenuto![F,A,D]2 !tenuto![A,DF]2 | !tenuto![CEG]2 !>![^A,CF]7/2 [A,CE]/ | %95
 !>![A,FA]4 !tenuto![A,D]2 | z2 (A,B, CD) | (^DF DF E) z | z2"_cresc." (=CD ^DE) | (FA FA G) z | %100
 z2 (EF GA) | (^Ac BA Bc) |!f! (ed cd BG) | F4 E2- | E!>(!(_E DC =CB,)!>)! | %105
!mp! !tenuto![D,F,A,]2 !tenuto![F,A,D]2 !tenuto![A,DF]2 | !>![CEG]4- [CEG]>[A,DF] | [A,DF]6- | %108
 [A,DF]6 | !tenuto![D,F,A,]2 !tenuto![F,A,D]2 !tenuto![A,DF]2 | %110
 !tenuto![CEG]2 !>![^A,CF]7/2 [A,CE]/ | !>![A,FA]4 !tenuto![A,D]2 | z2 (DE F^G) | %113
"_cresc." (AB ^GB A) z | z2 (G^G AB) | (cd ^Bd c) z | z2 (^Bc ^d^e) |!f! (f^g a^e gf) | %118
 (a^e ^gf af) | (af af a^e | f)(A [^GB][Ac] [Bd][ce]) |: ([df]4 [Ac]2) | ([ce]4 [DB]2) | %123
 ([Bd]4 [EG]2) | (5:4:5(c'/d'/c'/d'/c'/) .[a^b] z .[ac'] z | ([dg]4 [Gd]2) | ([cf]4 [Ec]2) | %127
 ([ce]4 [FA]2) | (5:4:5(d'/e'/d'/e'/d'/) .[fc'] z .[fd'] z | ([df]4 [Ac]2) | ([ce]4 [DB]2) | %131
 ([Bd]4 [EG]2) | (5:4:5(c'/d'/c'/d'/c'/) .[a^b] z .[ac'] z |1!<(! ([dg]4 [Gd]2) | ([^dg]4 [Gd]2) | %135
 ([eg]4 [Ge]2)!<)! | [Aea](A [^GB][Ac] [Bd][ce]) :|2!f!!<(! ([ab]4 [Ba]2) | ([ab]4 [=ca]2)!<)! | %139
 [cec'] z!ff! (a^a bc' | [dfad']) z"_dolce"!mf! ([dd']2 [^d^d']2) || ([ee']4 [Aa]2) | %142
 z2 ([Bb]2 [=c=c']2) | ([dd']4 [Gg]2) | z2 ([Aa]2 [Bb]2) | ([=c=c']4 [Ee]2) | ([Bb]4 [Gg]2) | %147
 ([Bb]4 [Aa]2) | z2 ([dd']2 [^d^d']2) | ([ee']4 [Aa]2) | z2 ([Bb]2 [=c=c']2) |!<(! ([dd']4 [Gg]2) | %152
 z2 ([Bb]2 [^E^e]2)!<)! |!f! ([FBf]2 [Bb]2 [dd']2) | ([d^ad']4 [cc']2) | ([Bb]!>(!d ef ^g^a!>)! | %156
!mf! b) z ([dd']2 [^d^d']2) | ([ee']4 [Aa]2) | z2 ([Bb]2 [=c=c']2) | ([dd']4 [Gg]2) | %160
 z2 ([Aa]2 [Bb]2) | ([=c=c']4 [Ee]2) | ([Bb]4 [Gg]2) | ([Bb]4 [Aa]2) | z2 ([dd']2 [^d^d']2) | %165
 ([ee']4 [Aa]2) | z2 ([Bb]2 [=c=c']2) |!<(! ([dd']4 [Gg]2) | z2 ([Bb]2 [^E^e]2)!<)! | %169
!f! ([FBf]2 [Bb]2 [dd']2) | ([d^ad']4 [cc']2) |!mf! z .[DB] ([DB][Bd]) ([Bd][db]) | %172
 z .[DB] ([DB][Bd]) ([Bd][db]) | z .[GB] ([GB][Bg]) ([Bg][gb]){ef} | %174
!<(! z .[GB] z [Bg] z!<)!!mf! [gb] | z .[Ec] ([Ec][ce]) z [ec'] | z .[^Ac] ([Ac][c^a]) z [ac'] | %177
!>(! z .[GB] ([GB][Bg]) z!>)!!mf! [gb]{de} | z .[GB] z [Bg] z [gb] | %179
 z .[FB] ([FB][Bf]) z [fb]{Bc} | z .[DF] z [Fd] z [df] | z .[B,G] ([B,G][GB]) z [Bg] | %182
!<(! z .[B,G] z [GB] z!<)!!mf! [Bg] |!>(! z .[EF] ([EF][Fe]) z!>)!!mf! [ef] | %184
!<(! z .[EF] z [Fe] z!<)!!mf! [ef] |!>(! z .[DF] ([DF][Fd]) z!>)!!mf! [df] | %186
 !>![Bdf](!>!^A !>!B!>!c !>!d!>!e) | z .[DB] ([DB][Bd]) ([Bd][db]) | %188
 z .[DB] ([DB][Bd]) ([Bd][db]) | z .[GB] ([GB][Bg]) ([Bg][gb]){ef} | %190
!<(! z .[GB] z [Bg] z!<)!!mf! [gb] | z .[Ec] ([Ec][ce]) z [ec'] | z .[^Ac] ([Ac][c^a]) z [ac'] | %193
!>(! z .[GB] ([GB][Bg]) z!>)!!mf! [gb]{de} |!<(! z .[GB] z [Bg] z!<)!!mf! [gb] | %195
!>(! z .[FB] ([FB][Bf]) z!>)!!mf! [fb] |!<(! z .[FB] z [Bf] z!<)!!mf! [fb] | %197
!>(! z .[GB] ([GB][Bg]) z!>)!!mf! [gb] |"_cresc." z .[GB] z [Bg] z [gb] | %199
 z .[DB] ([DB][Bd]) z [db] | z .[C^A] z [Ac] [Ac] z |!f!!>(! z .[FB] ([FB][Bf]) z!>)! [fb] | %202
!mf! [fb] z"^dolce"[Q:1/4=150] ([dd']2[Q:1/4=165] [^d^d']2) |[Q:1/4=180] ([ee']4 [Aa]2) | %204
 z2 ([Bb]2 [=c=c']2) | ([dd']4 [Gg]2) | z2 ([Aa]2 [Bb]2) | ([=c=c']4 [Ee]2) | ([Bb]4 [Gg]2) | %209
 ([Bb]4 [Aa]2) | z2 ([dd']2 [^d^d']2) | ([ee']4 [Aa]2) | z2 ([Bb]2 [=c=c']2) | ([dd']4 [Gg]2) | %214
!<(! z2 [Gg]2 [Aa]2 | [Bb]4 [Ee]2 | [Bb]4 [Ee]2!<)! |!f! (!>![Bb]2 [Ee]2) (!>![Bb]2 | %218
 [Ee]2) (!>![Bb]2 [Ee]2) | (!>![B,B]2 [E,E]2) (!>![B,B]2 | [E,E]2) (!>![B,B]2 [E,E]2) | %221
!ff! (3(bc'b [cc']) z[K:bass]!pp![Q:1/4=170]"^rit."!<(! (!>!A,2 | C,2)[Q:1/4=160] (!>!A,2 D,2) | %223
[Q:1/4=150] (!>!A,2 ^D,2)[Q:1/4=140] (!>!A,2 | E,2)[Q:1/4=130] (!>!A,2 ^E,2)!<)! | %225
[K:treble][Q:1/4=180]!mf! !tenuto![D,F,A,]2 !tenuto![F,A,D]2 !tenuto![A,DF]2 | %226
 !>![CEG]4- [CEG]>[A,DF] | [A,DF]6- | [A,DF]6 | %229
 !tenuto![D,F,A,]2 !tenuto![F,A,D]2 !tenuto![A,DF]2 | !tenuto![CEG]2 !>![^A,CF]7/2 [A,CE]/ | %231
 !>![A,FA]4 !tenuto![A,D]2 | z2 (A,B, CD) | (^DF DF E) z | z2"_cresc." (=CD ^DE) | (FA FA G) z | %236
 z2 (EF GA) | (^Ac BA Bc) |!f! (ed!<(! cd BG) | !>!F4 !>!E2-!<)! |!f! E!>(!(_E DC B,_B,)!>)! | %241
!mf! !tenuto![D,F,A,]2 !tenuto![F,A,D]2 !tenuto![A,DF]2 | !>![CEG]4- [CEG]>[A,DF] | [A,DF]6- | %244
 [A,DF]6 | !tenuto![D,F,A,]2 !tenuto![F,A,D]2 !tenuto![A,DF]2 | %246
 !tenuto![CEG]2 !>![^A,CF]7/2 [A,CE]/ | !>![A,FA]4 !tenuto![A,D]2 | z2 (DE F^G) | %249
"_cresc." (AB ^GB A) z | z2 (G^G AB) | (cd ^Bd c) z | z2 (^Bc ^d^e) |!ff! (f^g a^e gf) | %254
 (a^e ^gf af) | (af af a^e | f)!>(!(A [^GB][Ac] [Bd][ce])!>)! |:!f! ([df]4 [Ac]2) | ([ce]4 [DB]2) | %259
 ([Bd]4 [EG]2) | (5:4:5(c'/d'/c'/d'/c'/) .[a^b] z .[ac'] z | ([dg]4 [Gd]2) | ([cf]4 [Ec]2) | %263
 ([ce]4 [FA]2) | (5:4:5(d'/e'/d'/e'/d'/) .[fc'] z .[fd'] z | ([df]4 [Ac]2) | ([ce]4 [DB]2) | %267
 ([Bd]4 [EG]2) | (5:4:5(c'/d'/c'/d'/c'/) .[a^b] z .[ac'] z |1!<(! ([dg]4 [Gd]2) | ([^dg]4 [Gd]2) | %271
 ([eg]4 [Ge]2)!<)! | [Aea](A [^GB][Ac] [Bd][ce]) :|2!f!!<(! ([ab]4 [Ba]2) | ([ab]4 [=ca]2)!<)! || %275
 [cec'] z!ff! (ef g^g | a)^g a^a bc' | !>![dd']6 | !>![cc']6 |!fff! (d'c') .b.a (ba) | %280
 .f.d .f.a .b.d' | !>![ff']6 | !>![gg']2 !>![aa']2 !>![gg']2 | (f'e') .d'.a .f.a | %284
 [=c=fa=c'] z!p! (=FG ^GA) | (_B=c Ac B) z | z!<(! (^G A_B =c^c)!<)! | %287
!mp!!>(! (d_e ce!>)!!p! d) z | z (E =FG ^GA) | (_B=c Ac B) z | z!<(! (^G A_B =c^c)!<)! | %291
!mp!!>(! (d_e ce!>)!!p! d) z | z!pp! (E =FG ^GA) |"_poco""_cresc." (_B=c Ac Bd) | (=cd Bd c_e) | %295
 (d_e ce d=f) | (e=f ^df eg) |!mf!"_cresc." (fg fa) (ga | g_b) (ab a=c') | (b=c' bd') (^c'd' | %300
 c'e') (d'=f' e'g') |!fff! !>![=f=f']6 | !>![ee']6 | (=f'e' d'=c') (d'c' | a=f) a=c' d'=f' | %305
 !>![aa']6 | !>![_b_b']6 | (a'g' =f'=c') .a.c' | ([gac']a) .^g.a .b.c' | ([dd']4 [Aa]2) | %310
 ([dd']4 [^A^a]2) | (c'b ^ab ge) | (3([bb'][c'c''][bb']) .[^a^a'] z .[bb'] z | ([cc']4 [Gg]2) | %314
 ([cc']4 [^G^g]2) | (ba ^ga fd) | (3([aa'][bb'][aa']) .[^g^g'] z .[aa'] z |!ff! ([_B_b]4 [=F=f]2) | %318
 ([_A_a]4 [Ee]2) | ([Aa]2 [Ee]2)!mp!"^accel.""_cresc." (3(fgf | d) z (3(gag e) z | %321
 (3(^gag =f) z[Q:1/4=190]"^\n" (3(a_ba | f) z (3(_b=c'b g) z | %323
[Q:1/4=210] (3(b=c'b ^g) z[Q:1/4=195] (3(c'd'c' | a) z (3(c'd'c' a) z | %325
!fff![Q:1/4=190] ([dd']4 [Aa]2) | ([dd']4 [^A^a]2) | (c'b ^ab ge) | %328
 (3([bb'][c'c''][bb']) .[^a^a'] z .[bb'] z | ([cc']4 [Gg]2) | ([cc']4 [^G^g]2) | (ba ^ga fd) | %332
 (3([aa'][bb'][aa']) .[^g^g'] z .[aa'] z |!ff! ([_B_b]4 [=F=f]2) | ([_A_a]4 [Ee]2) | %335
 ([Aa]2 [Ee]2)!mp!"_cresc." (3(fgf | d) z (3(gag e) z |[Q:1/4=195] (3(^gag =f) z (3(a_ba | %338
 f) z (3(_b=c'b g) z |[Q:1/4=200]"^\n\n" (3(b=c'b ^g) z (3(c'd'c' | a) z (3(c'd'c' a) z | %341
!fff! [dd'] z (3(c'd'c' a) z | (3(bc'b g) z [cc'] z | [dd'] z (3(c'd'c' a) z | %344
 (3(bc'b g) z [cc'] z |[Q:1/4=195] [dd'] z (3(c'd'c' b) z |[Q:1/4=190] [dd'] z (3(c'd'c' b) z | %347
[Q:1/4=186] [dd'] z (3(c'd'c' b) z |[Q:1/4=183]"^\n" [dd'] z (3(c'd'c' b) z | %349
"^rallentando"[Q:1/4=170]"^\n" [fa]2[Q:1/4=160] [fad']2[Q:1/4=150] [ad'f']2 | %350
[Q:1/4=140] [gd'g']2[Q:1/4=110]"^\n\n" [ac'e'a']7/2[Q:1/4=180] [fad']/ | [fad']2 [df]2 [dfa]2 | %352
 [fad'] z z4 |] %353
V:2
 [E,A,C]2 [E,A,C]2 [E,A,C]2 | [_E,A,=C]4 [=E,A,^C]2 | !>![E,A,C]6- | [E,A,C] z z4 | %4
 [E,A,C]2 [E,A,C]2 [E,A,C]2 | [A,^DF]4 [A,CE]2 | !>![A,CE]6- | [A,CE] z z4 | %8
!mf!!<(! [E,A,C]2 [E,A,C]2 [E,A,C]2!<)! |!f!"_dim." [^D,F,B,^D]4 [D,F,B,D]2 | %10
 [E,A,B,D]4 [E,G,B,D]2 | [A,B,^D]4 [A,B,D]2 | [G,B,^D]4 [G,B,]2 | [E,^G,]4 [E,G,]2 | %14
 [E,^G,]2 [E,A,]2!mp! [D,=F,G,]2 | (C,/E,/G,/A,/) (E,/G,/A,/C/) (G,/A,/C/E/) | %16
 (A,/C/E/G/) (G,/A,/C/E/) (E,/G,/A,/C/) | (C,/E,/G,/A,/) (E,/G,/A,/C/) (G,/A,/C/E/) | %18
 (C/E/G/A/) (A,/C/E/G/) (G,/A,/C/E/) | (E,/G,/A,/C/) (G,/A,/C/E/) (A,/C/E/G/) | %20
[K:treble] (C/E/G/B/) (C/E/G/A/) (E/G/A/d/) | (E/G/A/c/) (G/A/c/f/) (G/A/c/e/) | %22
 (A/c/e/g/) (A/c/e/g/) (c/e/g/b/) | (c/e/g/a/) (A/c/e/g/) (G/A/c/e/) | %24
 (E/G/A/c/) (C/E/G/A/) (A,/C/E/G/) |[K:bass] (G,/A,/C/E/) (E,/G,/A,/C/) (C,/E,/G,/A,/) | %26
 (A,,/C,/E,/G,/) (G,,/A,,/C,/E,/) (E,,/G,,/A,,/C,/) | %27
 (C,,/E,,/G,,/A,,/) (A,,,/C,,/E,,/G,,/) (12:8:12(A,,/4C,/4E,/4A,/4C/4E/4[K:treble]A/4c/4e/4a/4c'/4e'/4 | %28
 a') z !arpeggio![EAce]2 !arpeggio![CEAc]2 | %29
[K:bass] !arpeggio![A,CEA]2 !arpeggio![E,A,CE]2 !arpeggio![C,E,A,C]2 | !arpeggio![A,,C,E,A,]6 | %31
 !arpeggio![A,,D,=F,^G,]6 | !arpeggio![A,,E,G,A,]6 ||!pp!!<(! D,,2 (.[D,,F,,A,,]2 .[D,,F,,A,,]2) | %34
 D,,2 (.[D,,F,,A,,]2 .[D,,F,,A,,]2) | D,,2 (.[D,,F,,A,,]2 .[D,,F,,A,,]2) | %36
 D,,2 (.[D,,F,,A,,]2!<)! .[D,,F,,A,,]2) | D,,2 (.[D,,F,,A,,]2 .[D,,F,,A,,]2) | %38
 D,,2 (.[D,,G,,_B,,]2 .[D,,G,,B,,]2) | D,,2 (.[D,,F,,A,,]2 .[D,,F,,A,,]2) | %40
 D,,2 (.[D,,F,,A,,]2 .[D,,F,,A,,]2) | D,,2 (.[D,,F,,A,,]2 .[D,,F,,A,,]2) | %42
 D,,2 (.[D,,G,,_B,,]2 .[D,,G,,B,,]2) | D,,2 (.[D,,F,,A,,]2 .[D,,F,,A,,]2) | %44
 [D,,D,]2 (.[F,,A,,]2 .[F,,A,,]2) | [C,,C,]2 (.[E,,A,,]2 .[E,,A,,]2) | %46
 [=C,,=C,]2"_cresc." (.[E,,G,,^A,,]2 .[E,,G,,A,,]2) | [B,,,B,,]2 (.[E,,G,,B,,]2 .[E,,G,,B,,]2) | %48
 [G,,,G,,]2 (.[E,,G,,B,,]2 .[E,,G,,B,,]2) | [E,,E,]2 (.[G,,B,,E,]2 .[G,,B,,E,]2) | %50
!mp! [B,,,B,,]2 (.[G,,E,G,]2 .[G,,E,G,]2) | [_B,,,_B,,]2 (.[^G,,D,^G,]2 .[G,,D,G,]2) | %52
 !arpeggio![A,,C,G,A,] z z4 | D,,2 (.[D,,F,,A,,]2 .[D,,F,,A,,]2) | %54
 D,,2 (.[D,,G,,_B,,]2 .[D,,G,,B,,]2) | D,,2 (.[D,,F,,A,,]2 .[D,,F,,A,,]2) | %56
 D,,2 (.[D,,F,,A,,]2 .[D,,F,,A,,]2) | D,,2 (.[D,,F,,A,,]2 .[D,,F,,A,,]2) | %58
 D,,2 (.[D,,G,,_B,,]2 .[D,,G,,B,,]2) | D,,2 (.[D,,F,,A,,]2 .[D,,F,,A,,]2) | %60
 [D,D]2 (.[F,,A,,=C,]2 .[F,,A,,C,]2) |"_cresc." [C,C]2 ((.[F,,A,,C,]2 .[F,,A,,C,]2)) | %62
 [B,,B,]2 (.[^E,,B,,C,]2 .[E,,B,,C,]2) | [A,,A,]2 (.[F,,A,,C,]2 .[F,,A,,C,]2) | %64
 [^G,,^G,]2 (.[^E,,G,,B,,C,]2 .[E,,G,,B,,C,]2) |!mf! [F,,F,]2 [F,,A,,C,]2 [E,,E,]2 | %66
 [F,,A,,C,]2 [D,,D,]2 [F,,A,,=C,]2 | [C,,C,]2 [F,,A,,C,]2 [^E,,B,,C,]2 | %68
 [F,,A,,C,F,]2 (^G,A, B,C) |:!mp! [D,D]2 [A,,F,A,]2 [A,,F,A,]2 | [A,,A,]2 [A,,F,A,]2 [A,,F,A,]2 | %71
 [E,E]2 [G,,E,G,]2 [G,,E,G,]2 | [A,,G,]2 [G,,E,G,]2 [G,,E,G,]2 | [B,,B,]2 [G,,D,G,]2 [G,,D,G,]2 | %74
 [A,,A,]2 [A,,G,A,]2 [A,,G,A,]2 | [D,D]2 [A,,F,A,]2 [A,,F,A,]2 | [A,,A,]2 [A,,D,A,]2 [A,,D,A,]2 | %77
 [D,D]2 [A,,F,A,]2 [A,,F,A,]2 | [A,,A,]2 [A,,F,A,]2 [A,,F,A,]2 | [E,E]2 [G,,E,G,]2 [G,,E,G,]2 | %80
 [A,,G,]2 [G,,E,G,]2 [G,,E,G,]2 |1!<(! ^A,,2 [G,,D,G,]2 [G,,D,G,]2 | B,,2 [G,,^D,G,]2 [G,,D,G,]2 | %83
 =C,2 [G,,E,G,]2 [G,,E,G,]2!<)! | [C,E,G,A,](A, ^G,A, B,C) :|2!mp!!<(! F,2 [A,,D,A,]2 [A,,D,A,]2 | %86
 =F,2 [A,,^D,A,]2 [A,,D,A,]2!<)! | [E,G,A,C] z z2 [B,,D,E,] z | %88
 [A,,C,E,A,]!>(!.[CE] .[G,C].[E,G,] [C,G,]2!>)! ||!p! D,,2 (.[D,,F,,A,,]2 .[D,,F,,A,,]2) | %90
 D,,2 (.[D,,G,,_B,,]2 .[D,,G,,B,,]2) | D,,2 (.[D,,F,,A,,]2 .[D,,F,,A,,]2) | %92
 D,,2 (.[D,,F,,A,,]2 .[D,,F,,A,,]2) | D,,2 (.[D,,F,,A,,]2 .[D,,F,,A,,]2) | %94
 D,,2 (.[D,,G,,_B,,]2 .[D,,G,,B,,]2) | D,,2 (.[D,,F,,A,,]2 .[D,,F,,A,,]2) | %96
 [D,,D,]2 (.[F,,A,,]2 .[F,,A,,]2) | [C,,C,]2 (.[E,,A,,]2 .[E,,A,,]2) | %98
 [=C,,=C,]2"_cresc." (.[E,,G,,^A,,]2 .[E,,G,,A,,]2) | [B,,,B,,]2 (.[E,,G,,B,,]2 .[E,,G,,B,,]2) | %100
 [G,,,G,,]2 (.[E,,G,,B,,]2 .[E,,G,,B,,]2) | [E,,E,]2 (.[G,,B,,E,]2 .[G,,B,,E,]2) | %102
!mp! [B,,,B,,]2 (.[G,,E,G,]2 .[G,,E,G,]2) | [_B,,,_B,,]2 (.[^G,,D,^G,]2 .[G,,D,G,]2) | %104
 !arpeggio![A,,C,G,A,] z z4 |!p! D,,2 (.[D,,F,,A,,]2 .[D,,F,,A,,]2) | %106
 D,,2 (.[D,,G,,_B,,]2 .[D,,G,,B,,]2) | D,,2 (.[D,,F,,A,,]2 .[D,,F,,A,,]2) | %108
 D,,2 (.[D,,F,,A,,]2 .[D,,F,,A,,]2) | D,,2 (.[D,,F,,A,,]2 .[D,,F,,A,,]2) | %110
 D,,2 (.[D,,G,,_B,,]2 .[D,,G,,B,,]2) | D,,2 (.[D,,F,,A,,]2 .[D,,F,,A,,]2) | %112
 [D,D]2 (.[F,,A,,=C,]2 .[F,,A,,C,]2) |"_cresc." [C,C]2 ((.[F,,A,,C,]2 .[F,,A,,C,]2)) | %114
 [B,,B,]2 (.[^E,,B,,C,]2 .[E,,B,,C,]2) | [A,,A,]2 (.[F,,A,,C,]2 .[F,,A,,C,]2) | %116
 [^G,,^G,]2 (.[^E,,G,,B,,C,]2 .[E,,G,,B,,C,]2) |!mf! [F,,F,]2 [F,,A,,C,]2 [E,,E,]2 | %118
 [F,,A,,C,]2 [D,,D,]2 [F,,A,,=C,]2 | [C,,C,]2 [F,,A,,C,]2 [^E,,B,,C,]2 | %120
 [F,,A,,C,F,]2 (^G,A, B,C) |:!mp! [D,D]2 [A,,F,A,]2 [A,,F,A,]2 | [A,,A,]2 [A,,F,A,]2 [A,,F,A,]2 | %123
 [E,E]2 [G,,E,G,]2 [G,,E,G,]2 | [A,,G,]2 [G,,E,G,]2 [G,,E,G,]2 | [B,,B,]2 [G,,D,G,]2 [G,,D,G,]2 | %126
 [A,,A,]2 [A,,G,A,]2 [A,,G,A,]2 | [D,D]2 [A,,F,A,]2 [A,,F,A,]2 | [A,,A,]2 [A,,D,A,]2 [A,,D,A,]2 | %129
 [D,D]2 [A,,F,A,]2 [A,,F,A,]2 | [A,,A,]2 [A,,F,A,]2 [A,,F,A,]2 | [E,E]2 [G,,E,G,]2 [G,,E,G,]2 | %132
 [A,,G,]2 [G,,E,G,]2 [G,,E,G,]2 |1!<(! ^A,,2 [G,,D,G,]2 [G,,D,G,]2 | B,,2 [G,,^D,G,]2 [G,,D,G,]2 | %135
 =C,2 [G,,E,G,]2 [G,,E,G,]2!<)! | [C,E,G,A,](A, ^G,A, B,C) :|2!mp!!<(! F,2 [A,,D,A,]2 [A,,D,A,]2 | %138
 =F,2 [A,,^D,A,]2 [A,,D,A,]2!<)! | [E,G,A,C] z z2 [A,,E,G,] z | [D,F,A,D] z z4 || %141
!p! [F,,F,]2 [A,=CE]2 [A,CE]2 | [D,,D,]2 [A,=CD]2 [A,CD]2 | [G,,G,]2 [G,B,D]2 [G,B,D]2 | %144
 [E,,E,]2 [G,B,E]2 [G,B,E]2 | [A,,A,]2 [A,=CE]2 [A,CE]2 | [A,,,A,,]2 [A,CE]2 [A,CE]2 | %147
 [D,,D,]2 [A,DF]2 [A,DF]2 | [B,,B,]2 [G,DG]2 [G,B,^DG]2 | [F,,F,]2 [A,=CEA]2 [A,CE]2 | %150
 [D,,D,]2 [A,=CD]2 [A,CD]2 |!<(! [G,,G,]2 [G,B,D]2 [G,B,D]2 | [E,,E,]2 [G,B,G]2 [G,B,C]2!<)! | %153
!mp! [F,,F,]2 [B,DF]2 [B,DF]2 | [F,,,F,,]2 [F,EF]2 [F,EF]2 | [B,,,B,,]2 [F,B,DF]2 [F,B,DF]2 | %156
!p! [F,B,DF] z z4 | [F,,F,]2 [A,=CE]2 [A,CE]2 | [D,,D,]2 [A,=CD]2 [A,CD]2 | %159
 [G,,G,]2 [G,B,D]2 [G,B,D]2 | [E,,E,]2 [G,B,E]2 [G,B,E]2 | [A,,A,]2 [A,=CE]2 [A,CE]2 | %162
 [A,,,A,,]2 [A,CE]2 [A,CE]2 | [D,,D,]2 [A,DF]2 [A,DF]2 | [B,,B,]2 [G,DG]2 [G,B,^DG]2 | %165
 [F,,F,]2 [A,=CEA]2 [A,CE]2 | [D,,D,]2 [A,=CD]2 [A,CD]2 |!<(! [G,,G,]2 [G,B,D]2 [G,B,D]2 | %168
 [E,,E,]2 [G,B,G]2 [G,B,C]2!<)! |!mp! [F,,F,]2 [B,DF]2 [B,DF]2 | [F,,,F,,]2 [F,EF]2 [F,EF]2 | %171
 z2 [D,F,B,]2 [D,F,B,]2 | z2 [D,F,B,]2 [D,F,B,]2 | z2 [C,G,B,]2 [C,G,B,]2 | %174
 z2 [B,,G,B,]2 [B,,G,B,]2 | z2 [^A,,C,F,]2 [A,,C,F,]2 | z2 [F,,B,,C,F,]2 [F,,B,,C,F,]2 | %177
 z2 [G,,B,,G,]2 [G,,B,,G,]2 | z2 [G,,B,,G,]2 [G,,B,,G,]2 | z2 [D,F,B,]2 [F,,D,F,]2 | %180
 z2 [F,,D,F,]2 [F,,D,F,]2 | z2 [G,,E,G,]2 [G,,E,]2 | z2 [G,,E,G,]2 [G,,E,G,]2 | %183
 z2 [E,F,B,]2 [E,F,B,]2 | z2 [E,F,B,]2 [E,F,B,]2 | z2 [B,,D,F,]2 [B,,D,F,]2 | %186
 [B,,D,F,B,](^A, B,C DE) | z2 [D,F,B,]2 [D,F,B,]2 | z2 [D,F,B,]2 [D,F,B,]2 | %189
 z2 [C,G,B,]2 [C,G,B,]2 | z2 [B,,G,B,]2 [B,,G,B,]2 | z2 [^A,,C,F,]2 [A,,C,F,]2 | %192
 z2 [F,,B,,C,F,]2 [F,,B,,C,F,]2 | z2 [G,,B,,G,]2 [G,,B,,G,]2 | z2 [G,,B,,G,]2 [G,,B,,G,]2 | %195
 z2 [B,,D,F,]2 [B,,D,F,]2 | z2 [B,,D,F,]2 [B,,D,F,]2 | z2 [B,,E,G,]2 [B,,E,G,]2 | %198
 z2"_cresc." [B,,^E,G,]2 [B,,E,G,]2 | z2 [B,,D,F,]2 [B,,D,F,]2 | z2 [C,F,^A,C]2 [C,F,A,C]2 | %201
 z2!f!!>(! [B,,F,B,]2 [B,,F,B,]2!>)! |!mp! [B,,F,B,] z z4 | [F,,F,]2 [=C,E,F,A,]2 [C,E,F,A,]2 | %204
 [D,,D,]2 [=C,D,A,]2 [C,D,A,]2 | [G,,G,]2 [B,,D,G,]2 [B,,D,G,]2 | [E,,E,]2 [E,G,B,]2 [E,G,B,]2 | %207
 [A,,A,]2 [=C,E,A,]2 [C,E,A,]2 | [A,,,A,,]2 [C,E,A,]2 [C,E,A,]2 | [D,,D,]2 [D,F,A,]2 [D,F,A,]2 | %210
 [B,,B,]2 [G,D]2 [G,^D]2 | [F,,F,]2 [=C,E,F,A,]2 [C,E,F,A,]2 | [D,,D,]2 [=C,D,A,]2 [C,D,A,]2 | %213
 [G,,G,]2 [B,,D,G,]2 [B,,D,G,]2 | z2 .[G,D]2 ([G,D]2 | [G,C]2) .[G,C]2 ([G,C]2 | %216
 [G,D]2) .[G,D]2 .[G,D]2 | [C,G,E]4 !>![B,,G,]2- | [B,,G,]2 !>![A,,G,]4 | [C,G,C]4 [B,,G,B,]2- | %220
 [B,,G,B,]2 [A,,G,A,]4 |[K:treble] [Aceg] z [Aceg] z[K:bass] [A,,G,]2- | [A,,G,]2 [B,,F,]4 | %223
 [=C,=F,]4 [^C,E,]2- | [C,E,]2 [C,_E,]4 |!mp! D,,2 (.[D,,F,,A,,]2 .[D,,F,,A,,]2) | %226
 D,,2 (.[D,,G,,_B,,]2 .[D,,G,,B,,]2) | D,,2 (.[D,,F,,A,,]2 .[D,,F,,A,,]2) | %228
 D,,2 (.[D,,F,,A,,]2 .[D,,F,,A,,]2) | D,,2 (.[D,,F,,A,,]2 .[D,,F,,A,,]2) | %230
 D,,2 (.[D,,G,,_B,,]2 .[D,,G,,B,,]2) | D,,2 (.[D,,F,,A,,]2 .[D,,F,,A,,]2) | %232
 [D,,D,]2 (.[F,,A,,]2 .[F,,A,,]2) | [C,,C,]2 (.[E,,A,,]2 .[E,,A,,]2) | %234
 [=C,,=C,]2"_cresc." (.[E,,G,,^A,,]2 .[E,,G,,A,,]2) | [B,,,B,,]2 (.[E,,G,,B,,]2 .[E,,G,,B,,]2) | %236
 [G,,,G,,]2 (.[E,,G,,B,,]2 .[E,,G,,B,,]2) | [E,,E,]2 (.[G,,B,,E,]2 .[G,,B,,E,]2) | %238
!f! [B,,,B,,]2 (.[G,,E,G,]2 .[G,,E,G,]2) | [_B,,,_B,,]2 (.[^G,,D,E,]2 .[G,,D,E,]2) | %240
!f! [A,,E,G,C] z z4 |!mp! D,,2 (.[D,,F,,A,,]2 .[D,,F,,A,,]2) | %242
 D,,2 (.[D,,G,,_B,,]2 .[D,,G,,B,,]2) | D,,2 (.[D,,F,,A,,]2 .[D,,F,,A,,]2) | %244
 D,,2 (.[D,,F,,A,,]2 .[D,,F,,A,,]2) | D,,2 (.[D,,F,,A,,]2 .[D,,F,,A,,]2) | %246
 D,,2 (.[D,,G,,_B,,]2 .[D,,G,,B,,]2) | D,,2 (.[D,,F,,A,,]2 .[D,,F,,A,,]2) | %248
 [D,D]2 (.[F,,A,,=C,]2 .[F,,A,,C,]2) |"_cresc." [C,C]2 ((.[F,,A,,C,]2 .[F,,A,,C,]2)) | %250
 [B,,B,]2 (.[^E,,B,,C,]2 .[E,,B,,C,]2) | [A,,A,]2 (.[F,,A,,C,]2 .[F,,A,,C,]2) | %252
 [^G,,^G,]2 (.[^E,,G,,B,,C,]2 .[E,,G,,B,,C,]2) |!f! [F,,F,]2 [F,,A,,C,]2 [E,,E,]2 | %254
 [F,,A,,C,]2 [D,,D,]2 [F,,A,,=C,]2 | [C,,C,]2 [F,,A,,C,]2 [^E,,B,,C,]2 | %256
 [F,,A,,C,F,]2!>(! (^G,A, B,C)!>)! |:!mp! [D,D]2 [A,,F,A,]2 [A,,F,A,]2 | %258
 [A,,A,]2 [A,,F,A,]2 [A,,F,A,]2 | [E,E]2 [G,,E,G,]2 [G,,E,G,]2 | [A,,G,]2 [G,,E,G,]2 [G,,E,G,]2 | %261
 [B,,B,]2 [G,,D,G,]2 [G,,D,G,]2 | [A,,A,]2 [A,,G,A,]2 [A,,G,A,]2 | [D,D]2 [A,,F,A,]2 [A,,F,A,]2 | %264
 [A,,A,]2 [A,,D,A,]2 [A,,D,A,]2 | [D,D]2 [A,,F,A,]2 [A,,F,A,]2 | [A,,A,]2 [A,,F,A,]2 [A,,F,A,]2 | %267
 [E,E]2 [G,,E,G,]2 [G,,E,G,]2 | [A,,G,]2 [G,,E,G,]2 [G,,E,G,]2 |1!<(! ^A,,2 [G,,D,G,]2 [G,,D,G,]2 | %270
 B,,2 [G,,^D,G,]2 [G,,D,G,]2 | =C,2 [G,,E,G,]2 [G,,E,G,]2!<)! | [C,E,G,A,](A, ^G,A, B,C) :|2 %273
!mp!!<(! F,2 [A,,D,A,]2 [A,,D,A,]2 | =F,2 [A,,^D,A,]2 [A,,D,A,]2!<)! || [E,G,A,C] z z2 [E,B,DE] z | %276
 [E,A,CE] z z4 |!f! [D,,F,,D,]2 [D,F,A,]2 [D,F,A,]2 | [D,,F,,D,]2 [D,E,G,_B,]2 [D,E,G,B,]2 | %279
 [D,,F,,D,]2 [D,F,A,]2 [D,F,A,]2 | [D,,F,,D,]2 [D,F,A,]2 [D,F,A,]2 | %281
 [D,,F,,D,]2 [D,F,A,]2 [D,F,A,]2 | [D,,F,,D,]2 [D,E,G,_B,]2 [D,E,G,B,]2 | %283
 [D,,F,,D,]2 [D,F,A,]2 [D,F,A,]2 | [_E,=F,A,=C] z z4 | [=F,,D,=F,] z [F,_B,D]2 [F,B,D]2 | %286
 [=F,,=C,=F,] z [F,A,_E]2 [F,A,E]2 | [=F,,_B,,=F,] z [F,_B,D]2 [F,B,D]2 | %288
 [=F,,_E,=F,] z [F,_B,=C]2 [F,B,C]2 | [=F,,D,=F,] z [F,_B,D]2 [F,B,D]2 | %290
 [=F,,=C,=F,] z [F,A,_E]2 [F,A,E]2 | [=F,,_B,,=F,] z [F,_B,D]2 [F,B,D]2 | %292
 [_E,=F,] z [=C,E,F,] z z2 | [=F,,_B,,D,=F,]2 [F,,B,,D,F,]2 z2 | [F,,A,,^D,=F,]2 [F,,A,,D,F,]2 z2 | %295
 [=F,,_B,,D,=F,]2 [F,,B,,D,F,]2 z2 | [_B,,=C,G,_B,]2 [B,,C,G,B,]2 z2 | %297
 [A,,=C,D,A,]4 [G,,_B,,D,G,]2- | [G,,B,,D,G,]2 [F,,_B,,D,F,]4 | [=F,,A,,D,=F,]4 [E,,G,,A,,E,]2- | %300
 [E,,G,,A,,E,]2 [D,,=F,,A,,D,]2 [C,,E,,A,,C,]2 | [=C,,=C,]!f! z [=F,A,]2 [F,A,]2 | %302
 [=C,,=C,] z [E,G,_B,]2 [E,G,B,]2 | [=C,,=C,] z [=F,A,]2 [F,A,]2 | [=C,,=C,] z [=F,A,]2 [F,A,]2 | %305
 [=C,,=C,] z [=F,A,]2 [F,A,]2 | [=C,,=C,] z [E,G,_B,]2 [E,G,B,]2 | [=F,,=F,] z [F,A,]2 [F,A,]2 | %308
 [E,,G,,A,,E,] z z4 |!ff! [F,,A,,F,]2 .[D,,D,].[D,,D,] [F,,A,,D,F,]2 | %310
 [F,,^A,,F,]2 .[E,,E,].[E,,E,] [F,,A,,E,F,]2 | [G,,B,,E,G,] z .[E,G,E].[E,G,E] .[E,G,E] z | %312
 [E,G,B,] z [E,G,^A,] z [E,G,B,] z | [E,,G,,E,]2 .[B,,,B,,].[B,,,B,,] [E,,G,,B,,E,]2 | %314
 [^E,,^G,,^E,]2 .[C,,C,].[C,,C,] [E,,G,,C,E,]2 | [F,,A,,D,F,] z .[F,DF].[F,DF] .[F,DF] z | %316
 [D,F,A,] z [D,F,^G,] z [D,F,A,] z |!mf! [D,,=F,,D,]2 .[_B,,_B,].[B,,B,] .[B,,B,]2 | %318
 [D,,E,,D,]2 .[B,,B,].[B,,B,] .[B,,B,]2 | [A,,C,E,]4 [=C,F,A,=C]2- | [C,F,A,C]2 [B,,D,G,B,]4 | %321
 [_B,,D,=F,^G,_B,]4 [A,,D,^F,A,]2- | [A,,D,F,A,]2 [_B,,D,G,_B,]4 | [^G,,D,=F,^G,B,]4 [A,,E,A,]2- | %324
 [A,,E,A,]2 [A,,_E,G,A,]4 |!ff! [F,,A,,F,]2 .[D,,D,].[D,,D,] [F,,A,,D,F,]2 | %326
 [F,,^A,,F,]2 .[E,,E,].[E,,E,] [F,,A,,E,F,]2 | [G,,B,,E,G,] z .[E,G,E].[E,G,E] .[E,G,E] z | %328
 [E,G,B,] z [E,G,^A,] z [E,G,B,] z | [E,,G,,E,]2 .[B,,,B,,].[B,,,B,,] [E,,G,,B,,E,]2 | %330
 [^E,,^G,,^E,]2 .[C,,C,].[C,,C,] [E,,G,,C,E,]2 | [F,,A,,D,F,] z .[F,DF].[F,DF] .[F,DF] z | %332
 [D,F,A,] z [D,F,^G,] z [D,F,A,] z |!mf! [D,,=F,,D,]2 .[_B,,_B,].[B,,B,] .[B,,B,]2 | %334
 [D,,E,,D,]2 .[B,,B,].[B,,B,] .[B,,B,]2 | [A,,C,E,]4 [=C,F,A,=C]2- | [C,F,A,C]2 [B,,D,G,B,]4 | %337
 [_B,,D,=F,^G,_B,]4 [A,,D,^F,A,]2- | [A,,D,F,A,]2 [_B,,D,G,_B,]4 | [^G,,D,=F,^G,B,]4 [A,,E,A,]2- | %340
 [A,,E,A,]2 [A,,_E,G,A,]4 |!ff! [D,F,A,D] z [F,A,CF]4 | [D,G,B,D]4 [E,G,A,C] z | %343
 [D,F,A,D] z [F,A,CF]4 | [D,G,B,D]4 [E,G,A,C] z | [D,F,A,D] z [F,A,C]2 [D,G,B,] z | %346
 [D,F,A,D] z [F,A,C]2 [D,G,B,] z | [D,F,A,D] z [F,A,C]2 [D,G,B,] z | %348
 [D,F,A,D] z [F,A,C]2 [D,G,B,] z | [D,F,A,D]2 [D,A,]2 [D,A,D]2 | [B,,G,B,]2 [A,,C,E,A,]7/2 [A,F]/ | %351
 [A,,D,A,]2 [D,A,]2 [D,F,A,]2 | [D,A,] z z4 |] %353
V:3
 z6 | z6 |!p!!<(! (A,,,/C,,/E,,/A,,/ C,/E,/A,/C/[K:treble] (3E/A/c/(3e/a/c'/!<)! | %3
!f!!>(! e'/c'/a/e/ c/A/E/C/[K:bass] (3A,/E,/C,/(3A,,/E,,/C,,/!>)! |!p! A,,,) z z4 | z6 | %6
!p!!<(! (A,,,/C,,/E,,/A,,/ C,/E,/A,/C/[K:treble] (7:4:7E/A/c/e/a/c'/e'/!<)! | %7
!f!!>(! g'/e'/c'/a/ e/c/A/E/[K:bass] (7:4:7C/A,/E,/C,/A,,/E,,/C,,/!>)! |!p! A,,,) z z4 | z6 | %10
!p! !//-!G,,3 G,,,3 | !//-!G,,3 G,,,3 | !//-!G,,3 G,,,3 | !//-!G,,3 G,,,3 | !//-!G,,3 G,,,3 | %15
!mp! [A,CEA]6- | [A,CEA] z z4 | z6 | z6 | z6 | z6 | z6 | z6 | z6 | z6 | z6 | z6 | z6 | z6 | z6 | %30
 z6 | z6 | z6 || z6 | z6 | z6 | z6 | z6 | z6 | z6 | z6 | z6 | z6 | z6 | z6 | z6 | z6 | z6 | z6 | %49
 z6 | z6 | z6 | z6 | z6 | z6 | z6 | z6 | z6 | z6 | z6 | z6 | z6 | z6 | z6 | z6 | z6 | z6 | z6 | %68
 z6 |: z6 | z6 | z6 | z6 | z6 | z6 | z6 | z6 | z6 | z6 | z6 | z6 |1 z6 | z6 | z6 | z6 :|2 z6 | z6 | %87
 z6 | z6 || z6 | z6 |[K:treble] z!mp!!<(! (A Bc df)!<)! |!mf!!>(! (ba fd B!>)!!mp!A) | z6 | z6 | %95
 z!<(! (c de fa)!<)! |!mf!!>(! (d'a fd A!>)!!mp!F) | z2 z2 z!mp! (f | e=c G) z z2 | z2 z2 z (a | %100
 ge B) z z2 | z2!mf! !tenuto!d'2 !tenuto!b2 | !tenuto!g2 ed gb | (!//-!d2 e2 (5:4:5d/e/d/e/d/ | %104
 c) z z4 | z6 | z6 | z!mp!!<(! (A Bc df)!<)! |!mf!!>(! (ba fd B!>)!!mp!A) | z6 | z6 | %111
 z!<(! (c de fa)!<)! |!mf!!>(! (d'a fd A!>)!!mp!F) | z2 z2 z (a | ^g^e c) z z2 | z2 z2 z!mf! (f | %116
 ^ec) (^G4 | A) z z4 | z6 | z6 | z6 |: z6 | z6 | z6 | z6 | z6 | z6 | z6 | z6 | z6 | z6 | z6 | z6 |1 %133
 z6 | z6 | z6 | z6 :|2 z6 | z6 | z6 | z6 ||!p! (ed =cB AG | ([FA])G FE D=C) | (d=c BA GF | %144
 ([EG])F EF ED) | (AB =cd ef | ([cg])d ef ga) | (FG AB =c^c | ([Gd])F GA GF | ([Ee])d =cB AG | %150
 ([FA])G FE D=C) |!<(! (d=c BA GF | ([EG])F ED CB,)!<)! |!mp! ([Bf]e dc BG | %154
 ([F,F])G, ^G,A, B,^A, | B,) z z4 |!p! (dc BA GF) | (ed =cB AG | ([FA])G FE D=C) | (d=c BA GF | %160
 ([EG])F EF ED) | (AB =cd ef | ([cg])d ef ga) | (FG AB =c^c | ([Gd])F GA GF | ([Ee])d =cB AG | %166
 ([FA])G FE D=C) |!<(! (d=c BA GF | ([EG])F ED CB,)!<)! |!mp! ([Bf]e dc BG | [F,F])G, ^G,A, B,^A, | %171
 z6 | z6 | z6 | z6 | z6 | z6 | z6 | z6 | z6 | z6 | z6 | z6 | z6 | z6 | z6 | z6 | z6 | z6 | z6 | %190
 z6 | z6 | z6 | z6 | z6 | z6 | z6 | z6 | z6 | z6 | z6 | z6 |!mf! (DC B,A, G,F,) | (e'd' =c'b ag | %204
 ([fa])g fe d=c) | (d'=c' ba gf | ([eg])f ef ed | ([=ca])b =c'd' e'f' | g')(d ef ga | %209
 ([fb])g ab =c'^c' | ([gd'])f ga gf | ([ee'])d' =c'b ag | [fa])g fe d=c | d'=c' ba gf | d=c BA GF | %215
 gf ed cB | ba gf ed | z6 | z6 | z6 | z6 | z6 | z6 | z6 | z6 | z6 | z6 | %227
[K:treble] z!mf!!<(! (A Bc df)!<)! |!f!!>(! (ba fd B!>)!!mf!A) | z6 | z6 | z!<(! (c de fa)!<)! | %232
!f!!>(! (d'a fd A!>)!!mf!F) | z2 z2 z (f | e=c G) z z2 | z2 z2 z (a | ge B) z z2 | %237
 z2!f! !tenuto!d'2 !tenuto!b2 | !tenuto!g2 (ed gb) | (d4- de/d/ | c)!ff!(a _b=b =c'^c' | d') z z4 | %242
 z6 | z!mf!!<(! (A Bc df)!<)! |!f!!>(! (ba fd B!>)!!mf!A) | z6 | z6 | z!<(! (c de fa)!<)! | %248
!f!!>(! (d'a fd A!>)!!mf!F) | z2 z2 z (a | ^g^e c) z z2 | z2 z2 z!f! (f | ^ec) (^G4 | A) z z4 | %254
 z6 | z6 | z6 |: z6 | z6 | z6 | z6 | z6 | z6 | z6 | z6 | z6 | z6 | z6 | z6 |1 z6 | z6 | z6 | z6 :|2 %273
 z6 | z6 || z6 | z6 | !tenuto![FAd]2 !tenuto![Ada]2 !tenuto![dfa]2 | !>![eg_b]4- [egb]>[Adfa] | %279
 [Adfa]6- | [Adfa]6 | !tenuto![FAd]2 !tenuto![Ada]2 !tenuto![dfa]2 | [_Bce_b]4- [Bceb]>[dfad'] | %283
 [dfad']6 | z6 | z2 z2 z!mp! ([gg'] | [=f=f']6-) | [ff'-]4 f'(_b |!>(! d'=c' ag!>)!!p! =f) z | %289
 z2 z2 z!mp! ([gg'] | [=f=f']6-) | [ff'-]4 f'(_b |!>(! d'=c' ag!>)!!p! =f) z | z6 | z6 | z6 | z6 | %297
 z6 | z6 | z6 | z6 | [=FA] z !tenuto![A=c=f]2 !tenuto![cfa]2 | [cg_b]4- [cgb]>[=c=fa] | [=c=fa]6- | %304
 [cfa]6 | [=FA] z !tenuto![A=c=f]2 !tenuto![cfa]2 | [ceg_b]4- [cegb]>[=c=fa] | [=c=fa]6 | z6 | z6 | %310
 z6 | z6 | z6 | z6 | z6 | z6 | z6 | z6 | z6 | z6 | z6 | z6 | z6 | z6 | z6 | z6 | z6 | z6 | z6 | %329
 z6 | z6 | z6 | z6 | z6 | z6 | z6 | z6 | z6 | z6 | z6 | z6 | [DFAd] z [cfa]4 | [Bdg]4 [cga] z | %343
 [DFAd] z [cfa]4 | [Bdg]4 [cga] z | [Adfa] z [Acfa]2 [GBdg] z | [Adfa] z [Acfa]2 [GBdg] z | %347
 [Adfa] z [Acfa]2 [GBdg] z | [Adfa] z [Acfa]2 [GBdg] z | [A,FA]2 [DFAd]2 [Adf]2 | %350
 [DGd]2 [Ac]7/2 [DFAd]/ | [DFAd]2 [A,DF]2 [DFA]2 | [DAd] z z4 |] %353
V:4
 x6 | x6 | x6 | x6 | x6 | x6 | x6 | x6 | x6 | x6 | x6 | x6 | x6 | x6 | x6 | x6 | x6 | x6 | x6 | %19
 x6 | x6 | x6 | x6 | x6 | x6 | x6 | x4[K:bass] x2 | x4[K:treble] x3/2!8va(! x/ | x!8va)! x5 | x6 | %30
 x6 | x6 | x6 || x6 | x6 | x6 | x6 | x6 | x6 | x6 | x6 | x6 | x6 | x6 | x6 | x6 | x6 | x6 | x6 | %49
 x6 | x6 | x6 | x6 | x6 | x6 | x6 | x6 | x6 | x6 | x6 | x6 | x6 | x6 | x6 | x6 | x6 | x6 | x6 | %68
 x6 |: x6 | x6 | x6 | x6 | x6 | x6 | x6 | x6 | x6 | x6 | x6 | x6 |1 x6 | x6 | x6 | x6 :|2 x6 | x6 | %87
 x6 | x6 || x6 | x6 | x6 | x6 | x6 | x6 | x6 | x6 | x6 | x6 | x6 | x6 | x6 | x6 | x6 | x6 | x6 | %106
 x6 | x6 | x6 | x6 | x6 | x6 | x6 | x6 | x6 | x6 | x6 | x6 | x6 | x6 | x6 |: x6 | x6 | x6 | x6 | %125
 x6 | x6 | x6 | x6 | x6 | x6 | x6 | x6 |1 x6 | x6 | x6 | x6 :|2 x6 | x6 | x6 | x6 || e6 | d6 | d6 | %144
 [Ge]6 | e6- | e6 | [Af]6 | g6 | x6 | x6 | B6- | B6 | x2 f4 | x6 | x6 | x6 | e6 | d6 | d6 | [Ge]6 | %161
 e6- | e6 | [Af]6 | g6 | x6 | x6 | B6- | B6 | x2 f4 | x6 | !>![Ff]6 | !>![Gg]6 | !>![Ff]6 | %174
 (!>![Ee]2 !>![^D^d]2 !>![Ee]2) | (!>![Gg]4 !>![Ff]2) | (!>![Ff]4 !>![Ee]2) | (!>![Ee]4 !>![Dd]2) | %178
 (!>![Dd]2 !>![Cc]2 !>![Dd]2) | (!>![Ff]4 !>![B,B]2) | (!>![B,B]2 !>![^A,^A]2 !>![B,B]2) | %181
 (!>![Dd]4 !>![G,G]2) | (!>![G,G]2 !>![B,B]2 !>![Dd]2) | (!>![Dd]4 !>![^A,^A]2) | %184
 (!>![F,F]2 !>![^A,^A]2 !>![Dd]2) | (!>![Cc]4 !>![B,B]2) | x6 | !>![Ff]6 | !>![Gg]6 | !>![Ff]6 | %190
 (!>![Ee]2 !>![^D^d]2 !>![Ee]2) | (!>![Gg]4 !>![Ff]2) | (!>![Ff]4 !>![Ee]2) | (!>![Ee]4 !>![Dd]2) | %194
 (!>![Dd]2 !>![Cc]2 !>![Dd]2) | (!>![Bb]4 !>![B,B]2) | (!>![B,B]2 !>![Dd]2 !>![Ff]2) | %197
 (!>![Bb]4 !>![B,B]2) | (!>![B,B]2 !>![Dd]2 !>![Gg]2) | (!>![Bb]4 !>![Ff]2) | %200
 (!>![Gg]2 !>![Ff]3 !>![Cc]) | (!>![Ee]4 !>![Dd]2) | x6 | x6 | x6 | x6 | x6 | x6 | x6 | x6 | x6 | %211
 x6 | x6 | x6 | x6 | x6 | x6 | x6 | x6 | x6 | x6 | x4[K:bass] x2 | x6 | x6 | x6 |[K:treble] x6 | %226
 x6 | x6 | x6 | x6 | x6 | x6 | x6 | x6 | x6 | x6 | x6 | x6 | x6 | x6 | x6 | x6 | x6 | x6 | x6 | %245
 x6 | x6 | x6 | x6 | x6 | x6 | x6 | x6 | x6 | x6 | x6 | x6 |: x6 | x6 | x6 | x6 | x6 | x6 | x6 | %264
 x6 | x6 | x6 | x6 | x6 |1 x6 | x6 | x6 | x6 :|2 x6 | x6 || x6 | x6 | x6 | x6 | x6 | x6 | x6 | x6 | %283
 x6 | x6 | x6 | x6 | x6 | x6 | x6 | x6 | x6 | x6 | x6 | x6 | x6 | x6 | x6 | x6 | x6 | x6 | x6 | %302
 x6 | x6 | x6 | x6 | x6 | x6 | x6 | x6 | x6 | x6 | x6 | x6 | x6 | x6 | x6 | x6 | x6 | x6 | x6 | %321
 x6 | x6 | x6 | x6 | x6 | x6 | x6 | x6 | x6 | x6 | x6 | x6 | x6 | x6 | x6 | x6 | x6 | x6 | x6 | %340
 x6 | x6 | x6 | x6 | x6 | x6 | x6 | x6 | x6 | x6 | x6 | x6 | x6 |] %353
V:5
 x6 | x6 | x6 | x6 | x6 | x6 | x6 | x6 | x6 | x6 | x6 | x6 | x6 | x6 | x6 | x6 | x6 | x6 | x6 | %19
 x6 |[K:treble] x6 | x6 | x6 | x6 | x6 |[K:bass] x6 | x6 | x5[K:treble] x | x6 |[K:bass] x6 | x6 | %31
 x6 | x6 || x6 | x6 | x6 | x6 | x6 | x6 | x6 | x6 | x6 | x6 | x6 | x6 | x6 | x6 | x6 | x6 | x6 | %50
 x6 | x6 | x6 | x6 | x6 | x6 | x6 | x6 | x6 | x6 | x6 | x6 | x6 | x6 | x6 | x6 | x6 | x6 | x6 |: %69
 x6 | x6 | x6 | x6 | x6 | x6 | x6 | x6 | x6 | x6 | x6 | x6 |1 x6 | x6 | x6 | x6 :|2 x6 | x6 | x6 | %88
 x6 || x6 | x6 | x6 | x6 | x6 | x6 | x6 | x6 | x6 | x6 | x6 | x6 | x6 | x6 | x6 | x6 | x6 | x6 | %107
 x6 | x6 | x6 | x6 | x6 | x6 | x6 | x6 | x6 | x6 | x6 | x6 | x6 | x6 |: x6 | x6 | x6 | x6 | x6 | %126
 x6 | x6 | x6 | x6 | x6 | x6 | x6 |1 x6 | x6 | x6 | x6 :|2 x6 | x6 | x6 | x6 || x6 | x6 | x6 | x6 | %145
 x6 | x6 | x6 | x6 | x6 | x6 | x6 | x6 | x6 | x6 | x6 | x6 | x6 | x6 | x6 | x6 | x6 | x6 | x6 | %164
 x6 | x6 | x6 | x6 | x6 | x6 | x6 | x6 | x6 | x6 | x6 | x6 | x6 | x6 | x6 | x6 | x6 | x6 | x6 | %183
 x6 | x6 | x6 | x6 | x6 | x6 | x6 | x6 | x6 | x6 | x6 | x6 | x6 | x6 | x6 | x6 | x6 | x6 | x6 | %202
 x6 | x6 | x6 | x6 | x6 | x6 | x6 | x6 | x6 | x6 | x6 | x6 | =F,6 | E,6 | D,6 | x6 | x6 | x6 | x6 | %221
[K:treble] x4[K:bass] x2 | x6 | x6 | x6 | x6 | x6 | x6 | x6 | x6 | x6 | x6 | x6 | x6 | x6 | x6 | %236
 x6 | x6 | x6 | x6 | x6 | x6 | x6 | x6 | x6 | x6 | x6 | x6 | x6 | x6 | x6 | x6 | x6 | x6 | x6 | %255
 x6 | x6 |: x6 | x6 | x6 | x6 | x6 | x6 | x6 | x6 | x6 | x6 | x6 | x6 |1 x6 | x6 | x6 | x6 :|2 x6 | %274
 x6 || x6 | x6 | x6 | x6 | x6 | x6 | x6 | x6 | x6 | x6 | x6 | x6 | x6 | x6 | x6 | x6 | x6 | x6 | %293
 x6 | x6 | x6 | x6 | x6 | x6 | x6 | x6 | x6 | x6 | x6 | x6 | x6 | x6 | x6 | x6 | x6 | x6 | x6 | %312
 x6 | x6 | x6 | x6 | x6 | x6 | x6 | x6 | x6 | x6 | x6 | x6 | x6 | x6 | x6 | x6 | x6 | x6 | x6 | %331
 x6 | x6 | x6 | x6 | x6 | x6 | x6 | x6 | x6 | x6 | x6 | x6 | x6 | x6 | x6 | x6 | x6 | x6 | x6 | %350
 x6 | x6 | x6 |] %353

